; generated by PrusaSlicer 2.4.2+arm64 on 2022-07-29 at 14:27:53 UTC


;
;
; 

; external perimeters extrusion width = 0.45mm
; perimeters extrusion width = 0.45mm
; infill extrusion width = 0.45mm
; solid infill extrusion width = 0.45mm
; top infill extrusion width = 0.40mm
; first layer extrusion width = 0.42mm

M73 P0 R43
M73 Q0 S43
M201 X1000 Y1000 Z200 E5000 ; sets maximum accelerations, mm/sec^2
M203 X200 Y200 Z12 E120 ; sets maximum feedrates, mm / sec
M204 P1250 R1250 T1250 ; sets acceleration (P, T) and retract acceleration (R), mm/sec^2
M205 X8.00 Y8.00 Z0.40 E4.50 ; sets the jerk limits, mm/sec
M205 S0 T0 ; sets the minimum extruding and travel feed rate, mm/sec
M107
;TYPE:Custom
M862.3 P "MK3SMMU2S" ; printer model check
M862.1 P0.4 ; nozzle diameter check
M115 U3.11.0 ; tell printer latest fw version
G90 ; use absolute coordinates
M83 ; extruder relative mode
M104 S215 ; set extruder temp
M140 S60 ; set bed temp
Tx
M190 S60 ; wait for bed temp
M109 S215 ; wait for extruder temp
G28 W ; home all without mesh bed level
G80 ; mesh bed leveling

;go outside print area
G1 Y-3 F1000
G1 Z0.4 F1000
; select extruder
Tc
; purge line
G1 X55 F2000
G1 Z0.3 F1000
G92 E0
G1 X240 E25 F2200
G1 Y-2 F1000
G1 X55 E25 F1400
G1 Z0.2 F1000
M73 P0 R42
G1 X5 E4 F1000

M221 S95
G92 E0

; Don't change E values below. Excessive value can damage the printer.
M907 E430 ; set extruder motor current
G21 ; set units to millimeters
G90 ; use absolute coordinates
M83 ; use relative distances for extrusion
M900 K0.05 ; Filament gcode LA 1.5
M900 K30 ; Filament gcode LA 1.0
M107
;LAYER_CHANGE
;Z:0.2
;HEIGHT:0.2
;BEFORE_LAYER_CHANGE
G92 E0.0
;0.2


G1 E-.8 F2100
M73 Q0 S42
G1 Z.4 F720
;AFTER_LAYER_CHANGE
;0.2
G1 X93.015 Y88.693 F10800
G1 Z.2 F720
G1 E.8 F2100
M204 S800
;TYPE:Skirt/Brim
;WIDTH:0.42
G1 F1200
G1 X94.06 Y87.817 E.04278
G1 X95 Y87.623 E.03008
G1 X155 Y87.623 E1.88126
G1 X156.307 Y88.015 E.04278
G1 X157.183 Y89.06 E.04278
G1 X157.377 Y90 E.03008
G1 X157.377 Y120 E.94063
G1 X156.985 Y121.307 E.04278
G1 X155.94 Y122.183 E.04278
G1 X155 Y122.377 E.03008
G1 X95 Y122.377 E1.88126
G1 X93.693 Y121.985 E.04278
M73 P1 R42
M73 Q1 S42
G1 X92.817 Y120.94 E.04278
G1 X92.623 Y120 E.03008
G1 X92.623 Y90 E.94063
G1 X92.997 Y88.75 E.0409
M204 S1000
; printing object sao_jig.stl id:0 copy 0
;WIPE_START
G1 F8640
G1 X94.06 Y87.817 E-.32671
G1 X95 Y87.623 E-.22155
G1 X95.917 Y87.623 E-.21174
;WIPE_END
G1 E-.04 F2100
G1 Z.6 F720
G1 X95.787 Y90.787 F10800
G1 Z.2 F720
G1 E.8 F2100
M204 S800
;TYPE:Perimeter
G1 F1200
G1 X154.213 Y90.787 E1.8319
G1 X154.213 Y119.213 E.89127
G1 X95.787 Y119.213 E1.8319
G1 X95.787 Y90.847 E.88939
M204 S1000
G1 X95.41 Y90.41 F10800
M204 S800
;TYPE:External perimeter
G1 F1200
G1 X154.59 Y90.41 E1.85555
G1 X154.59 Y119.59 E.91492
G1 X95.41 Y119.59 E1.85555
G1 X95.41 Y90.47 E.91304
M204 S1000
G1 X95.805 Y90.471 F10800
;WIPE_START
G1 F8640
G1 X98.701 Y90.467 E-.76
;WIPE_END
G1 E-.04 F2100
G1 Z.6 F720
G1 X153.337 Y90.9 F10800
G1 Z.2 F720
G1 E.8 F2100
M204 S800
;TYPE:Solid infill
;WIDTH:0.420369
G1 F1200
G1 X153.93 Y91.494 E.02634
G1 X153.93 Y92.027 E.01675
G1 X152.973 Y91.07 E.0425
G1 X152.439 Y91.07 E.01675
G1 X153.93 Y92.561 E.06619
G1 X153.93 Y93.095 E.01675
G1 X151.905 Y91.07 E.08988
G1 X151.371 Y91.07 E.01675
G1 X153.93 Y93.629 E.11358
G1 X153.93 Y94.163 E.01675
G1 X150.837 Y91.07 E.13727
G1 X150.304 Y91.07 E.01675
G1 X153.93 Y94.696 E.16096
G1 X153.93 Y95.23 E.01675
G1 X149.77 Y91.07 E.18465
G1 X149.236 Y91.07 E.01675
G1 X153.93 Y95.764 E.20835
G1 X153.93 Y96.298 E.01675
G1 X148.702 Y91.07 E.23204
G1 X148.169 Y91.07 E.01675
G1 X153.93 Y96.831 E.25573
G1 X153.93 Y97.365 E.01675
G1 X147.635 Y91.07 E.27942
G1 X147.101 Y91.07 E.01675
G1 X153.93 Y97.899 E.30312
G1 X153.93 Y98.433 E.01675
G1 X146.567 Y91.07 E.32681
M73 Q2 S42
G1 X146.033 Y91.07 E.01675
M73 P2 R42
G1 X153.93 Y98.967 E.3505
G1 X153.93 Y99.5 E.01675
G1 X145.5 Y91.07 E.37419
G1 X144.966 Y91.07 E.01675
G1 X153.93 Y100.034 E.39788
G1 X153.93 Y100.568 E.01675
G1 X144.432 Y91.07 E.42158
G1 X143.898 Y91.07 E.01675
G1 X153.93 Y101.102 E.44527
G1 X153.93 Y101.636 E.01675
G1 X143.364 Y91.07 E.46896
G1 X142.831 Y91.07 E.01675
G1 X153.93 Y102.169 E.49265
G1 X153.93 Y102.703 E.01675
G1 X142.297 Y91.07 E.51635
G1 X141.763 Y91.07 E.01675
G1 X153.93 Y103.237 E.54004
G1 X153.93 Y103.771 E.01675
G1 X141.229 Y91.07 E.56373
G1 X140.695 Y91.07 E.01675
G1 X153.93 Y104.305 E.58742
G1 X153.93 Y104.838 E.01675
G1 X140.162 Y91.07 E.61112
G1 X139.628 Y91.07 E.01675
G1 X153.93 Y105.372 E.63481
G1 X153.93 Y105.906 E.01675
G1 X139.094 Y91.07 E.6585
G1 X138.56 Y91.07 E.01675
G1 X153.93 Y106.44 E.68219
G1 X153.93 Y106.974 E.01675
G1 X138.026 Y91.07 E.70589
G1 X137.493 Y91.07 E.01675
G1 X153.93 Y107.507 E.72958
G1 X153.93 Y108.041 E.01675
G1 X136.959 Y91.07 E.75327
G1 X136.425 Y91.07 E.01675
G1 X153.93 Y108.575 E.77696
G1 X153.93 Y109.109 E.01675
G1 X135.891 Y91.07 E.80066
G1 X135.357 Y91.07 E.01675
M73 P2 R41
G1 X153.93 Y109.643 E.82435
G1 X153.93 Y110.176 E.01675
G1 X134.824 Y91.07 E.84804
G1 X134.29 Y91.07 E.01675
G1 X153.93 Y110.71 E.87173
G1 X153.93 Y111.244 E.01675
G1 X133.756 Y91.07 E.89543
G1 X133.222 Y91.07 E.01675
M73 Q2 S41
G1 X153.93 Y111.778 E.91912
G1 X153.93 Y112.312 E.01675
M73 P3 R41
M73 Q3 S41
G1 X132.688 Y91.07 E.94281
G1 X132.155 Y91.07 E.01675
G1 X153.93 Y112.845 E.9665
G1 X153.93 Y113.379 E.01675
G1 X131.621 Y91.07 E.9902
G1 X131.087 Y91.07 E.01675
G1 X153.93 Y113.913 E1.01389
G1 X153.93 Y114.447 E.01675
G1 X130.553 Y91.07 E1.03758
G1 X130.02 Y91.07 E.01675
G1 X153.93 Y114.98 E1.06127
G1 X153.93 Y115.514 E.01675
G1 X129.486 Y91.07 E1.08497
G1 X128.952 Y91.07 E.01675
G1 X153.93 Y116.048 E1.10866
G1 X153.93 Y116.582 E.01675
G1 X128.418 Y91.07 E1.13235
G1 X127.884 Y91.07 E.01675
G1 X153.93 Y117.116 E1.15604
G1 X153.93 Y117.649 E.01675
G1 X127.351 Y91.07 E1.17974
G1 X126.817 Y91.07 E.01675
G1 X153.93 Y118.183 E1.20343
G1 X153.93 Y118.717 E.01675
G1 X126.283 Y91.07 E1.22712
G1 X125.749 Y91.07 E.01675
G1 X153.609 Y118.93 E1.23658
G1 X153.076 Y118.93 E.01675
G1 X125.215 Y91.07 E1.23658
G1 X124.682 Y91.07 E.01675
M73 P4 R41
M73 Q4 S41
G1 X152.542 Y118.93 E1.23658
G1 X152.008 Y118.93 E.01675
G1 X124.148 Y91.07 E1.23658
G1 X123.614 Y91.07 E.01675
G1 X151.474 Y118.93 E1.23658
G1 X150.94 Y118.93 E.01675
G1 X123.08 Y91.07 E1.23658
G1 X122.546 Y91.07 E.01675
G1 X150.407 Y118.93 E1.23658
G1 X149.873 Y118.93 E.01675
G1 X122.013 Y91.07 E1.23658
G1 X121.479 Y91.07 E.01675
G1 X149.339 Y118.93 E1.23658
G1 X148.805 Y118.93 E.01675
G1 X120.945 Y91.07 E1.23658
G1 X120.411 Y91.07 E.01675
G1 X148.271 Y118.93 E1.23658
G1 X147.738 Y118.93 E.01675
G1 X119.877 Y91.07 E1.23658
G1 X119.344 Y91.07 E.01675
G1 X147.204 Y118.93 E1.23658
G1 X146.67 Y118.93 E.01675
G1 X118.81 Y91.07 E1.23658
G1 X118.276 Y91.07 E.01675
M73 P5 R41
M73 Q5 S41
G1 X146.136 Y118.93 E1.23658
G1 X145.603 Y118.93 E.01675
M73 P5 R40
G1 X117.742 Y91.07 E1.23658
G1 X117.208 Y91.07 E.01675
G1 X145.069 Y118.93 E1.23658
G1 X144.535 Y118.93 E.01675
G1 X116.675 Y91.07 E1.23658
G1 X116.141 Y91.07 E.01675
M73 Q5 S40
G1 X144.001 Y118.93 E1.23658
G1 X143.467 Y118.93 E.01675
G1 X115.607 Y91.07 E1.23658
G1 X115.073 Y91.07 E.01675
G1 X142.934 Y118.93 E1.23658
G1 X142.4 Y118.93 E.01675
G1 X114.54 Y91.07 E1.23658
G1 X114.006 Y91.07 E.01675
G1 X141.866 Y118.93 E1.23658
G1 X141.332 Y118.93 E.01675
G1 X113.472 Y91.07 E1.23658
G1 X112.938 Y91.07 E.01675
G1 X140.798 Y118.93 E1.23658
G1 X140.265 Y118.93 E.01675
G1 X112.404 Y91.07 E1.23658
G1 X111.871 Y91.07 E.01675
G1 X139.731 Y118.93 E1.23658
G1 X139.197 Y118.93 E.01675
M73 P6 R40
M73 Q6 S40
G1 X111.337 Y91.07 E1.23658
G1 X110.803 Y91.07 E.01675
G1 X138.663 Y118.93 E1.23658
G1 X138.129 Y118.93 E.01675
G1 X110.269 Y91.07 E1.23658
G1 X109.735 Y91.07 E.01675
G1 X137.596 Y118.93 E1.23658
G1 X137.062 Y118.93 E.01675
G1 X109.202 Y91.07 E1.23658
G1 X108.668 Y91.07 E.01675
G1 X136.528 Y118.93 E1.23658
G1 X135.994 Y118.93 E.01675
G1 X108.134 Y91.07 E1.23658
G1 X107.6 Y91.07 E.01675
G1 X135.46 Y118.93 E1.23658
G1 X134.927 Y118.93 E.01675
G1 X107.066 Y91.07 E1.23658
G1 X106.533 Y91.07 E.01675
G1 X134.393 Y118.93 E1.23658
G1 X133.859 Y118.93 E.01675
G1 X105.999 Y91.07 E1.23658
G1 X105.465 Y91.07 E.01675
G1 X133.325 Y118.93 E1.23658
G1 X132.791 Y118.93 E.01675
G1 X104.931 Y91.07 E1.23658
G1 X104.397 Y91.07 E.01675
M73 P7 R40
M73 Q7 S40
G1 X132.258 Y118.93 E1.23658
G1 X131.724 Y118.93 E.01675
G1 X103.864 Y91.07 E1.23658
G1 X103.33 Y91.07 E.01675
G1 X131.19 Y118.93 E1.23658
G1 X130.656 Y118.93 E.01675
G1 X102.796 Y91.07 E1.23658
G1 X102.262 Y91.07 E.01675
G1 X130.123 Y118.93 E1.23658
G1 X129.589 Y118.93 E.01675
M73 P7 R39
G1 X101.728 Y91.07 E1.23658
G1 X101.195 Y91.07 E.01675
G1 X129.055 Y118.93 E1.23658
G1 X128.521 Y118.93 E.01675
G1 X100.661 Y91.07 E1.23658
G1 X100.127 Y91.07 E.01675
M73 Q7 S39
G1 X127.987 Y118.93 E1.23658
G1 X127.454 Y118.93 E.01675
G1 X99.593 Y91.07 E1.23658
G1 X99.06 Y91.07 E.01675
G1 X126.92 Y118.93 E1.23658
G1 X126.386 Y118.93 E.01675
G1 X98.526 Y91.07 E1.23658
G1 X97.992 Y91.07 E.01675
G1 X125.852 Y118.93 E1.23658
G1 X125.318 Y118.93 E.01675
M73 P8 R39
M73 Q8 S39
G1 X97.458 Y91.07 E1.23658
G1 X96.924 Y91.07 E.01675
G1 X124.785 Y118.93 E1.23658
G1 X124.251 Y118.93 E.01675
G1 X96.391 Y91.07 E1.23658
G1 X96.07 Y91.07 E.01006
G1 X96.07 Y91.283 E.00669
G1 X123.717 Y118.93 E1.22712
G1 X123.183 Y118.93 E.01675
G1 X96.07 Y91.817 E1.20343
G1 X96.07 Y92.351 E.01675
G1 X122.649 Y118.93 E1.17974
G1 X122.116 Y118.93 E.01675
G1 X96.07 Y92.884 E1.15604
G1 X96.07 Y93.418 E.01675
G1 X121.582 Y118.93 E1.13235
G1 X121.048 Y118.93 E.01675
G1 X96.07 Y93.952 E1.10866
G1 X96.07 Y94.486 E.01675
G1 X120.514 Y118.93 E1.08497
G1 X119.98 Y118.93 E.01675
G1 X96.07 Y95.02 E1.06127
G1 X96.07 Y95.553 E.01675
G1 X119.447 Y118.93 E1.03758
G1 X118.913 Y118.93 E.01675
G1 X96.07 Y96.087 E1.01389
G1 X96.07 Y96.621 E.01675
G1 X118.379 Y118.93 E.9902
G1 X117.845 Y118.93 E.01675
M73 P9 R39
M73 Q9 S39
G1 X96.07 Y97.155 E.9665
G1 X96.07 Y97.689 E.01675
G1 X117.311 Y118.93 E.94281
G1 X116.778 Y118.93 E.01675
G1 X96.07 Y98.222 E.91912
G1 X96.07 Y98.756 E.01675
G1 X116.244 Y118.93 E.89543
G1 X115.71 Y118.93 E.01675
G1 X96.07 Y99.29 E.87173
G1 X96.07 Y99.824 E.01675
G1 X115.176 Y118.93 E.84804
G1 X114.643 Y118.93 E.01675
G1 X96.07 Y100.357 E.82435
G1 X96.07 Y100.891 E.01675
G1 X114.109 Y118.93 E.80066
G1 X113.575 Y118.93 E.01675
G1 X96.07 Y101.425 E.77696
G1 X96.07 Y101.959 E.01675
G1 X113.041 Y118.93 E.75327
G1 X112.507 Y118.93 E.01675
G1 X96.07 Y102.493 E.72958
G1 X96.07 Y103.026 E.01675
G1 X111.974 Y118.93 E.70589
G1 X111.44 Y118.93 E.01675
G1 X96.07 Y103.56 E.68219
G1 X96.07 Y104.094 E.01675
M73 P9 R38
G1 X110.906 Y118.93 E.6585
G1 X110.372 Y118.93 E.01675
G1 X96.07 Y104.628 E.63481
G1 X96.07 Y105.162 E.01675
G1 X109.838 Y118.93 E.61112
G1 X109.305 Y118.93 E.01675
G1 X96.07 Y105.695 E.58742
G1 X96.07 Y106.229 E.01675
G1 X108.771 Y118.93 E.56373
G1 X108.237 Y118.93 E.01675
M73 Q9 S38
G1 X96.07 Y106.763 E.54004
G1 X96.07 Y107.297 E.01675
G1 X107.703 Y118.93 E.51635
G1 X107.169 Y118.93 E.01675
G1 X96.07 Y107.831 E.49265
G1 X96.07 Y108.364 E.01675
M73 P10 R38
G1 X106.636 Y118.93 E.46896
G1 X106.102 Y118.93 E.01675
M73 Q10 S38
G1 X96.07 Y108.898 E.44527
G1 X96.07 Y109.432 E.01675
G1 X105.568 Y118.93 E.42158
G1 X105.034 Y118.93 E.01675
G1 X96.07 Y109.966 E.39788
G1 X96.07 Y110.5 E.01675
G1 X104.5 Y118.93 E.37419
G1 X103.967 Y118.93 E.01675
G1 X96.07 Y111.033 E.3505
G1 X96.07 Y111.567 E.01675
G1 X103.433 Y118.93 E.32681
G1 X102.899 Y118.93 E.01675
G1 X96.07 Y112.101 E.30311
G1 X96.07 Y112.635 E.01675
G1 X102.365 Y118.93 E.27942
G1 X101.831 Y118.93 E.01675
G1 X96.07 Y113.169 E.25573
G1 X96.07 Y113.702 E.01675
G1 X101.298 Y118.93 E.23204
G1 X100.764 Y118.93 E.01675
G1 X96.07 Y114.236 E.20834
G1 X96.07 Y114.77 E.01675
G1 X100.23 Y118.93 E.18465
G1 X99.696 Y118.93 E.01675
G1 X96.07 Y115.304 E.16096
G1 X96.07 Y115.838 E.01675
G1 X99.162 Y118.93 E.13727
G1 X98.629 Y118.93 E.01675
G1 X96.07 Y116.371 E.11357
G1 X96.07 Y116.905 E.01675
G1 X98.095 Y118.93 E.08988
G1 X97.561 Y118.93 E.01675
G1 X96.07 Y117.439 E.06619
G1 X96.07 Y117.973 E.01675
G1 X97.027 Y118.93 E.0425
G1 X96.494 Y118.93 E.01675
G1 X95.9 Y118.337 E.02634
M204 S1000
; stop printing object sao_jig.stl id:0 copy 0
M106 S84.15
;LAYER_CHANGE
;Z:0.4
;HEIGHT:0.2
;BEFORE_LAYER_CHANGE
G92 E0.0
;0.4


;WIPE_START
G1 F8640
G1 X96.494 Y118.93 E-.19375
G1 X97.027 Y118.93 E-.12325
G1 X96.07 Y117.973 E-.31265
G1 X96.07 Y117.439 E-.12325
G1 X96.092 Y117.461 E-.00709
;WIPE_END
G1 E-.04 F2100
G1 Z.6 F720
;AFTER_LAYER_CHANGE
;0.4
G1 X92.623 Y117.461 F10800
G1 Z.4 F720
G1 E.8 F2100
;TYPE:Skirt/Brim
;WIDTH:0.42
G1 F3000
G1 X92.623 Y90 E.86101
G1 X93.015 Y88.693 E.04278
G1 X94.06 Y87.817 E.04278
G1 X95 Y87.623 E.03008
G1 X155 Y87.623 E1.88126
G1 X156.307 Y88.015 E.04278
G1 X157.183 Y89.06 E.04278
G1 X157.377 Y90 E.03008
G1 X157.377 Y120 E.94063
G1 X156.985 Y121.307 E.04278
G1 X155.94 Y122.183 E.04278
G1 X155 Y122.377 E.03008
G1 X95 Y122.377 E1.88126
G1 X93.693 Y121.985 E.04278
G1 X92.817 Y120.94 E.04278
G1 X92.623 Y120 E.03008
G1 X92.623 Y117.521 E.07774
; printing object sao_jig.stl id:0 copy 0
;WIPE_START
G1 F8640
G1 X92.623 Y114.229 E-.76
;WIPE_END
G1 E-.04 F2100
G1 Z.8 F720
G1 X95.632 Y119.368 F10800
G1 Z.4 F720
G1 E.8 F2100
M204 S800
;TYPE:Perimeter
;WIDTH:0.45
G1 F2700
G1 X95.632 Y90.632 E.97267
G1 X154.368 Y90.632 E1.98814
G1 X154.368 Y119.368 E.97267
G1 X95.692 Y119.368 E1.98611
M204 S1000
G1 X95.225 Y119.775 F10800
M204 S800
;TYPE:External perimeter
G1 F1500
G1 X95.225 Y90.225 E1.00023
G1 X154.775 Y90.225 E2.0157
G1 X154.775 Y119.775 E1.00023
G1 X95.285 Y119.775 E2.01367
M204 S1000
G1 X95.37 Y119.402 F10800
;WIPE_START
G1 F8640
G1 X95.278 Y116.484 E-.76
;WIPE_END
G1 E-.04 F2100
G1 Z.8 F720
G1 X154.246 Y118.422 F10800
G1 Z.4 F720
G1 E.8 F2100
;TYPE:Solid infill
;WIDTH:0.450628
G1 F4800
G1 X153.605 Y119.063 E.03073
G1 X153.028 Y119.063 E.01955
G1 X154.063 Y118.028 E.0496
G1 X154.063 Y117.452 E.01955
G1 X152.452 Y119.063 E.07724
M73 P11 R38
G1 X151.875 Y119.063 E.01955
G1 X154.063 Y116.875 E.10488
M73 Q11 S38
G1 X154.063 Y116.298 E.01955
G1 X151.298 Y119.063 E.13253
G1 X150.722 Y119.063 E.01955
G1 X154.063 Y115.722 E.16017
G1 X154.063 Y115.145 E.01955
G1 X150.145 Y119.063 E.18781
G1 X149.569 Y119.063 E.01955
G1 X154.063 Y114.569 E.21546
G1 X154.063 Y113.992 E.01955
G1 X148.992 Y119.063 E.2431
G1 X148.415 Y119.063 E.01955
G1 X154.063 Y113.415 E.27074
G1 X154.063 Y112.839 E.01955
G1 X147.839 Y119.063 E.29839
G1 X147.262 Y119.063 E.01955
G1 X154.063 Y112.262 E.32603
G1 X154.063 Y111.686 E.01955
G1 X146.686 Y119.063 E.35367
G1 X146.109 Y119.063 E.01955
G1 X154.063 Y111.109 E.38132
G1 X154.063 Y110.533 E.01955
G1 X145.533 Y119.063 E.40896
G1 X144.956 Y119.063 E.01955
G1 X154.063 Y109.956 E.4366
G1 X154.063 Y109.379 E.01955
G1 X144.379 Y119.063 E.46425
G1 X143.803 Y119.063 E.01955
G1 X154.063 Y108.803 E.49189
G1 X154.063 Y108.226 E.01955
G1 X143.226 Y119.063 E.51953
G1 X142.65 Y119.063 E.01955
G1 X154.063 Y107.65 E.54718
G1 X154.063 Y107.073 E.01955
G1 X142.073 Y119.063 E.57482
G1 X141.496 Y119.063 E.01955
G1 X154.063 Y106.496 E.60246
G1 X154.063 Y105.92 E.01955
G1 X140.92 Y119.063 E.63011
G1 X140.343 Y119.063 E.01955
G1 X154.063 Y105.343 E.65775
G1 X154.063 Y104.767 E.01955
G1 X139.767 Y119.063 E.6854
G1 X139.19 Y119.063 E.01955
G1 X154.063 Y104.19 E.71304
G1 X154.063 Y103.614 E.01955
G1 X138.613 Y119.063 E.74068
G1 X138.037 Y119.063 E.01955
G1 X154.063 Y103.037 E.76833
G1 X154.063 Y102.46 E.01955
G1 X137.46 Y119.063 E.79597
G1 X136.884 Y119.063 E.01955
G1 X154.063 Y101.884 E.82361
G1 X154.063 Y101.307 E.01955
G1 X136.307 Y119.063 E.85126
G1 X135.731 Y119.063 E.01955
G1 X154.063 Y100.731 E.8789
G1 X154.063 Y100.154 E.01955
G1 X135.154 Y119.063 E.90654
G1 X134.577 Y119.063 E.01955
G1 X154.063 Y99.577 E.93419
G1 X154.063 Y99.001 E.01955
G1 X134.001 Y119.063 E.96183
G1 X133.424 Y119.063 E.01955
G1 X154.063 Y98.424 E.98947
G1 X154.063 Y97.848 E.01955
G1 X132.848 Y119.063 E1.01712
G1 X132.271 Y119.063 E.01955
G1 X154.063 Y97.271 E1.04476
G1 X154.063 Y96.694 E.01955
